X: 10
T:Donald Willie and his Dog
R:Slip Jig
M:9/8
L:1/8
K:Hp
A2c cAc B2G | A2c cAc B3 | A2c cAc B2A | c2A ABG A3 :|
B2e eAc B2A | B2e eAc B3 | c2e eAc B2A | c2A ABG A3 :|
A2c ABB c2B | A2c Acc B3 | A2c ABB c2B | c2A ABG A3 :|
e2c cfd e2c | cec cdc B3 | e2c cfd e2d | c2A ABG A3 :|

